src/symbolic/mimetypes/font-x-generic-symbolic.svg

<svg xmlns="http://www.w3.org/2000/svg" width="16" height="16"><path d="M8 3v11h3.666C13.513 14 15 12.487 15 10.5S13.513 7 11.666 7H10V3zm3.334 6C12.257 9 13 9.665 13 10.5c0 .836-.743 1.5-1.666 1.5H10V9zM2 6v2h3v1H4c-1.662 0-3 1.115-3 2.5S2.338 14 4 14h3V8c0-1.108-.892-2-2-2zm1.5 5H5v1H3.5a.499.499 0 1 1 0-1z" fill="#444"/></svg>

<svg xmlns="http://www.w3.org/2000/svg" width="16" height="16" version="1.1">
 <path style="fill:#444444" d="M 8,3 V 14 H 11.666 C 13.513,14 15,12.487 15,10.5 15,8.5133 13.513,7 11.666,7 H 10 V 3 Z M 11.334,9 C 12.257,9 13,9.6648 13,10.5 13,11.336 12.257,12 11.334,12 H 10 V 9 Z"/>
 <path style="fill:#444444" d="M 2,6 V 8 H 5 V 9 H 4 C 2.338,9 1,10.115 1,11.5 1,12.885 2.338,14 4,14 H 7 V 8 C 7,6.892 6.108,6 5,6 Z M 3.5,11 H 5 V 12 H 3.5 C 3.223,12 3,11.777 3,11.5 3,11.223 3.223,11 3.5,11 Z"/>
</svg>
